X:1
T:Title
%%score { ( 1 3 ) | ( 2 4 ) }
L:1/8
M:6/8
K:Eb
V:1 treble nm="Grand Piano"
V:3 treble 
V:2 bass 
V:4 bass 
V:1
 z3 z2[Q:1/4=90] [GB] | [GB][_G=A][=GB] [_Ac][GB]E | E2 D D2 [FA] | [FA][=EG][FA] [Bd][Ac][GB] | %4
[M:5/8] [FA]2 [DB] [EG]2 |[M:1/8] [EG] |[M:3/4] [=B,G][CG] [DF] [CE]2 [CG] | [DB][EB] [FA] G2 G | %8
 FB ed Bc | [B,DB]6 |[M:1/8] B |[M:3/4] B3 .=A3 | e3 .B3 | [GB]3 [_G=A]3 | [FA]6 | A3 .G3 | %16
 f3 .d3 | [FA]3 [DB]3 | [EG]6 | [Ge]3 .[Ad]3 | [Ac]3 .[Ac]3 | [=Ec]3 .[FB]3 | [CFA]4- [CFA][CFA] | %23
 [B,EG]3 [EB]2 [Ec] | z [EG]- [EG]4 | [=A,EG]3 [_A,DF]3 |[M:5/8] [G,E]-[G,E]- [G,E]3 |] %27
V:2
 z3 z2 [E,E] | [E,E][E,E][E,E] [E,E][E,E][E,G,B,] | [F,A,B,]2 [F,A,B,] [F,A,B,]2 [B,,B,] | %3
 [B,,B,][B,,B,][B,,B,] [B,,B,][B,,B,][B,,B,] |[M:5/8] [D,B,]2 [B,,B,] [E,B,]2 |[M:1/8] [E,B,] | %6
[M:3/4] [G,,G,][=A,,G,] [=B,,G,] [C,G,]2 [C,E,] | [B,,B,][C,B,] [D,B,] [E,B,E]2 [=E,B,_D] | %8
 [F,B,D][F,B,D] [F,B,G][F,B,F] [F,B,D][F,B,E] | B,,6 |[M:1/8] B, | %11
[M:3/4] z[K:treble] E .E2 E[B,EG] | z G .G2[K:bass] EG, | B,,B,, B,,C, C,C, | D,D, D, B,,2 A, | %15
 z[K:treble] D .D2 D[A,DF] | z A .A2 A[K:bass]B, | B,,B,, B,,B,, B,,B,, | E,E, E, E,2 B, | %19
 [E,B,]E, E,[F,B,] F,G, | A,A, A,A, A,A, | C,C, C,D, D,=E, | F,4- F,F, | B,,3 [B,,G,]2 [B,,A,] | %24
 [B,,G,] [B,,B,]2 B,,3 | F,3 B,,3 |[M:5/8] E,-E,- E,3 |] %27
V:3
 x6 | x6 | x6 | x6 |[M:5/8] x5 |[M:1/8] x |[M:3/4] x6 | x6 | x6 | x6 |[M:1/8] x | %11
[M:3/4] z G .G2 _GB | z B .B2 G[B,EG] | B,B, B,B, B,B, | B,B, B, B,2 A | z F .F2 FA | %16
 z B .B2 B[AB] | B,B, B,B, B,B, | B,B, B, B,2 B | z B, .B,2 B,[EB_d] | EE EE E[EAc] | %21
 CC CC C[CGB] | x6 | x6 | .[EB]2 z B,3 | x6 |[M:5/8] x5 |] %27
V:4
 x6 | x6 | x6 | x6 |[M:5/8] x5 |[M:1/8] x |[M:3/4] x6 | x6 | x6 | x6 |[M:1/8] x | %11
[M:3/4] B,3[K:treble] .=A,3 | E3[K:bass] .B,3 | x6 | x6 | A,3[K:treble] .G,3 | F3 .D3[K:bass] | %17
 x6 | x6 | x6 | x6 | x6 | x6 | x6 | x6 | x6 |[M:5/8] x5 |] %27

